src/assets/img/footer-wave.svg

<svg style="object-fit:cover" id="my-svg" version="1" baseProfile="full" width="100%" height="100%" viewBox="0 0 1536 711" xmlns="http://www.w3.org/2000/svg"><rect width="1536" height="711" fill="#2d2d44"/><defs><linearGradient id="linear-gradient" x1="0" x2="1" y1="0" y2="0"><stop offset="0%" stop-color="#002f6280"/><stop offset="100%" stop-color="#43d5e480"/></linearGradient></defs><path transform="scale(1, 1)" style="transform-origin: center center 0px;" d="M 0,711 V 0,71 C 68.97588365243004,67.21189248895433 137.95176730486008,63.42378497790868 212,71 C 286.0482326951399,78.57621502209132 365.1688144329896,97.51675257731958 419,97 C 472.8311855670104,96.48324742268042 501.37297496318126,76.50920471281296 558,67 C 614.6270250368187,57.490795287187034 699.3392857142856,58.44642857142857 773,66 C 846.6607142857144,73.55357142857143 909.2698821796761,87.70508100147275 963,85 C 1016.7301178203239,82.29491899852725 1061.5811855670104,62.73324742268041 1117,62 C 1172.4188144329896,61.26675257731959 1238.4053755522827,79.36192930780561 1310,84 C 1381.5946244477173,88.63807069219439 1458.7973122238586,79.8190353460972 1536,71 C 1536,71 1536,711 1536,711 Z" stroke="none" stroke-width="0" fill="url(#linear-gradient)" class="transition-all duration-300 ease-in-out delay-150"/><defs><linearGradient id="linear-gradient" x1="0" x2="1" y1="0" y2="0"><stop offset="0%" stop-color="#002f6290"/><stop offset="100%" stop-color="#43d5e490"/></linearGradient></defs><path transform="scale(1, 1)" style="transform-origin: center center 0px;" d="M 0,711 V 0,106 C 51.248343151693675,104.27061855670104 102.49668630338735,102.54123711340206 174,104 C 245.50331369661265,105.45876288659794 337.2615979381443,110.10567010309278 411,105 C 484.7384020618557,99.89432989690722 540.4569219440353,85.0360824742268 592,85 C 643.5430780559647,84.9639175257732 690.9107142857142,99.75000000000001 758,106 C 825.0892857142858,112.24999999999999 911.9002209131077,109.9639175257732 985,108 C 1058.0997790868923,106.0360824742268 1117.4884020618556,104.39432989690721 1174,103 C 1230.5115979381444,101.60567010309279 1284.1461708394697,100.45876288659794 1344,101 C 1403.8538291605303,101.54123711340206 1469.926914580265,103.77061855670104 1536,106 C 1536,106 1536,711 1536,711 Z" stroke="none" stroke-width="0" fill="url(#linear-gradient)" class="transition-all duration-300 ease-in-out delay-150"/><defs><linearGradient id="linear-gradient" x1="0" x2="1" y1="0" y2="0"><stop offset="0%" stop-color="#002f62ff"/><stop offset="100%" stop-color="#43d5e4ff"/></linearGradient></defs><path transform="scale(1, 1)" style="transform-origin: center center 0px;" d="M 0,711 V 0,159 C 67.74116347569955,160.9322533136966 135.4823269513991,162.86450662739324 208,168 C 280.5176730486009,173.13549337260676 357.81185567010306,181.47422680412367 411,175 C 464.18814432989694,168.52577319587633 493.2702503681885,147.23858615611195 547,147 C 600.7297496318115,146.76141384388805 679.1071428571429,167.57142857142856 749,176 C 818.8928571428571,184.42857142857144 880.30117820324,180.47569955817377 941,178 C 1001.69882179676,175.52430044182623 1061.6881443298969,174.5257731958763 1138,175 C 1214.3118556701031,175.4742268041237 1306.9462444771723,177.42120765832107 1376,175 C 1445.0537555228277,172.57879234167893 1490.5268777614137,165.78939617083947 1536,159 C 1536,159 1536,711 1536,711 Z" stroke="none" stroke-width="0" fill="url(#linear-gradient)" class="transition-all duration-300 ease-in-out delay-150"/></svg>

<svg style="object-fit:cover" version="1" baseProfile="full" viewBox="0 0 1536 711" xmlns="http://www.w3.org/2000/svg"><path fill="#2d2d44" d="M0 0h1536v711H0z"/><defs><linearGradient id="a" x1="0" x2="1" y1="0" y2="0"><stop offset="0%" stop-color="#002f6280"/><stop offset="100%" stop-color="#43d5e480"/></linearGradient></defs><path style="transform-origin:center center 0" d="M0 711V0v71c68.976-3.788 137.952-7.576 212 0s153.169 26.517 207 26c53.831-.517 82.373-20.49 139-30 56.627-9.51 141.34-8.554 215-1s136.27 21.705 190 19c53.73-2.705 98.581-22.267 154-23 55.419-.733 121.405 17.362 193 22 71.595 4.638 148.797-4.181 226-13v640Z" fill="url(#a)" class="transition-all duration-300 ease-in-out delay-150"/><path style="transform-origin:center center 0" d="M0 711V0v106c51.248-1.73 102.497-3.459 174-2s163.262 6.106 237 1 129.457-19.964 181-20c51.543-.036 98.91 14.75 166 21s153.9 3.964 227 2 132.488-3.606 189-5c56.512-1.394 110.146-2.541 170-2 59.854.541 125.927 2.77 192 5v605Z" fill="url(#a)" class="transition-all duration-300 ease-in-out delay-150"/><path style="transform-origin:center center 0" d="M0 711V0v159c67.741 1.932 135.482 3.865 208 9s149.812 13.474 203 7c53.188-6.474 82.27-27.761 136-28 53.73-.239 132.107 20.571 202 29 69.893 8.429 131.301 4.476 192 2 60.699-2.476 120.688-3.474 197-3 76.312.474 168.946 2.421 238 0s114.527-9.21 160-16v552Z" fill="url(#a)" class="transition-all duration-300 ease-in-out delay-150"/></svg>
